src/next/cmd/sc_hidenote.svg

<svg height="16" viewBox="0 0 16 16" width="16" xmlns="http://www.w3.org/2000/svg" xmlns:xlink="http://www.w3.org/1999/xlink"><radialGradient id="a" cx="7.977352" cy="8.22044" gradientTransform="matrix(2.6101946 0 0 2.6007842 -8.822441 914.98257)" gradientUnits="userSpaceOnUse" r="56"><stop offset=".0765" stop-color="#f3c300"/><stop offset=".1887" stop-color="#f7d21f"/><stop offset=".3467" stop-color="#fde446"/><stop offset=".4294" stop-color="#ffeb55"/><stop offset=".6882" stop-color="#ffeb55"/><stop offset=".7281" stop-color="#fee951"/><stop offset=".7641" stop-color="#fde446"/><stop offset=".7987" stop-color="#fadb34"/><stop offset=".8322" stop-color="#f7cf1a"/><stop offset=".8588" stop-color="#f3c300"/><stop offset=".9208" stop-color="#fbd400"/><stop offset=".9706" stop-color="#fd0"/></radialGradient><linearGradient id="b" gradientUnits="userSpaceOnUse" x1="69.982056" x2="99.040398" y1="929.22302" y2="975.71637"><stop offset="0" stop-color="#fff" stop-opacity=".462094"/><stop offset=".5" stop-color="#fff"/><stop offset="1" stop-color="#fff" stop-opacity=".350181"/></linearGradient><g transform="scale(.125)"><g transform="translate(0 -924.36216)"><g fill="none" stroke-linecap="round" stroke-linejoin="round"><path d="m6.62296 930.92224h116.03294v115.61466h-116.03294z" opacity=".15" stroke="#000" stroke-width="12.432101"/><path d="m8.068121 932.36218h113.142619v112.73472h-113.142619z" opacity=".2" stroke="#000" stroke-width="8.081616"/><path d="m8.068121 932.36218h113.142619v112.73472h-113.142619z" stroke="#e3ad00" stroke-width="4.040808"/></g><path d="m8.068121 932.36218h111.931879v112.00002h-111.931879z" fill="#fff"/><path d="m12.059116 936.3139h103.940894v104.0483h-103.940894z" fill="url(#a)"/><path d="m12 936.36218h104v23.99998h-104z" fill="url(#b)"/><g fill="#fff" fill-opacity=".756881"><path d="m62.090896 1020.2523v-2.8232z"/><path d="m105.8159 928.74923v-2.82322z"/></g></g><path d="m6.6230469 1.0292969a5.5316896 5.5316896 0 0 0 -5.53125 5.53125v115.6132831a5.5316896 5.5316896 0 0 0 5.53125 5.53125h23.8027341l6.28125-1.66797 53.921875-114.791016 3.757813-10.2167971z" fill="#525252" opacity=".57"/><path d="m27.172553 123.63746c3.000001 1.50002 5.702 2.85196 8.839998 4.41997 3.104003-6.718 58.597162-117.099744 61.517165-123.4276937-3.002003-1.5000189-5.704003-2.8520315-8.842001-4.4200063-3.102002 6.7180347-58.595163 117.10171-61.515162 123.42773z" fill="#555" stroke-width="2"/></g></svg>

<?xml version="1.0" encoding="UTF-8" standalone="no"?>
<svg
   xmlns:dc="http://purl.org/dc/elements/1.1/"
   xmlns:cc="http://creativecommons.org/ns#"
   xmlns:rdf="http://www.w3.org/1999/02/22-rdf-syntax-ns#"
   xmlns:svg="http://www.w3.org/2000/svg"
   xmlns="http://www.w3.org/2000/svg"
   xmlns:sodipodi="http://sodipodi.sourceforge.net/DTD/sodipodi-0.dtd"
   xmlns:inkscape="http://www.inkscape.org/namespaces/inkscape"
   height="16"
   viewBox="0 0 16 16"
   width="16"
   version="1.1"
   id="svg54"
   sodipodi:docname="sc_hidenote.svg"
   inkscape:version="0.92.4 (unknown)"
   inkscape:export-filename="/home/rizmut/Dokumen/Rizmut/Github/libreoffice-style-karasa-jaga/build/next/cmd/sc_hidenote.png"
   inkscape:export-xdpi="96"
   inkscape:export-ydpi="96">
  <metadata
     id="metadata60">
    <rdf:RDF>
      <cc:Work
         rdf:about="">
        <dc:format>image/svg+xml</dc:format>
        <dc:type
           rdf:resource="http://purl.org/dc/dcmitype/StillImage" />
        <dc:title></dc:title>
      </cc:Work>
    </rdf:RDF>
  </metadata>
  <defs
     id="defs58" />
  <sodipodi:namedview
     pagecolor="#ffffff"
     bordercolor="#666666"
     borderopacity="1"
     objecttolerance="10"
     gridtolerance="10"
     guidetolerance="10"
     inkscape:pageopacity="0"
     inkscape:pageshadow="2"
     inkscape:window-width="1366"
     inkscape:window-height="706"
     id="namedview56"
     showgrid="true"
     inkscape:zoom="20.85965"
     inkscape:cx="10.307029"
     inkscape:cy="5.5992063"
     inkscape:window-x="0"
     inkscape:window-y="0"
     inkscape:window-maximized="1"
     inkscape:current-layer="g860">
    <inkscape:grid
       type="xygrid"
       id="grid843" />
  </sodipodi:namedview>
  <radialGradient
     id="a"
     cx="7.9773521"
     cy="8.2204399"
     gradientTransform="matrix(2.6101946,0,0,2.6007842,-8.822441,914.98257)"
     gradientUnits="userSpaceOnUse"
     r="56">
    <stop
       offset=".0765"
       stop-color="#f3c300"
       id="stop2" />
    <stop
       offset=".1887"
       stop-color="#f7d21f"
       id="stop4" />
    <stop
       offset=".3467"
       stop-color="#fde446"
       id="stop6" />
    <stop
       offset=".4294"
       stop-color="#ffeb55"
       id="stop8" />
    <stop
       offset=".6882"
       stop-color="#ffeb55"
       id="stop10" />
    <stop
       offset=".7281"
       stop-color="#fee951"
       id="stop12" />
    <stop
       offset=".7641"
       stop-color="#fde446"
       id="stop14" />
    <stop
       offset=".7987"
       stop-color="#fadb34"
       id="stop16" />
    <stop
       offset=".8322"
       stop-color="#f7cf1a"
       id="stop18" />
    <stop
       offset=".8588"
       stop-color="#f3c300"
       id="stop20" />
    <stop
       offset=".9208"
       stop-color="#fbd400"
       id="stop22" />
    <stop
       offset=".9706"
       stop-color="#fd0"
       id="stop24" />
  </radialGradient>
  <linearGradient
     id="b"
     gradientUnits="userSpaceOnUse"
     x1="69.982056"
     x2="99.040398"
     y1="929.22302"
     y2="975.71637">
    <stop
       offset="0"
       stop-color="#fff"
       stop-opacity=".462094"
       id="stop27" />
    <stop
       offset=".5"
       stop-color="#fff"
       id="stop29" />
    <stop
       offset="1"
       stop-color="#fff"
       stop-opacity=".350181"
       id="stop31" />
  </linearGradient>
  <g
     id="g860"
     transform="scale(0.125)">
    <g
       id="g52"
       transform="translate(0,-924.36216)">
      <g
         id="g40"
         style="fill:none;stroke-linecap:round;stroke-linejoin:round">
        <path
           id="path34"
           d="M 6.62296,930.92224 H 122.6559 V 1046.5369 H 6.62296 Z"
           inkscape:connector-curvature="0"
           style="opacity:0.15;stroke:#000000;stroke-width:12.43210125" />
        <path
           id="path36"
           d="M 8.068121,932.36218 H 121.21074 V 1045.0969 H 8.068121 Z"
           inkscape:connector-curvature="0"
           style="opacity:0.2;stroke:#000000;stroke-width:8.0816164" />
        <path
           id="path38"
           d="M 8.068121,932.36218 H 121.21074 V 1045.0969 H 8.068121 Z"
           inkscape:connector-curvature="0"
           style="stroke:#e3ad00;stroke-width:4.0408082" />
      </g>
      <path
         id="path42"
         d="M 8.068121,932.36218 H 120 V 1044.3622 H 8.068121 Z"
         inkscape:connector-curvature="0"
         style="fill:#ffffff" />
      <path
         id="path44"
         d="M 12.059116,936.3139 H 116.00001 v 104.0483 H 12.059116 Z"
         style="fill:url(#a)"
         inkscape:connector-curvature="0" />
      <path
         id="path46"
         d="m 12,936.36218 h 104 v 23.99998 H 12 Z"
         style="fill:url(#b)"
         inkscape:connector-curvature="0" />
      <path
         id="path48"
         d="m 62.090896,1020.2523 v -2.8232 z"
         inkscape:connector-curvature="0"
         style="fill:#ffffff;fill-opacity:0.756881" />
      <path
         id="path50"
         d="m 105.8159,928.74923 v -2.82322 z"
         inkscape:connector-curvature="0"
         style="fill:#ffffff;fill-opacity:0.756881" />
    </g>
    <path
       id="path2673"
       d="m 6.6230469,1.0292969 a 5.5316896,5.5316896 0 0 0 -5.53125,5.53125 V 122.17383 a 5.5316896,5.5316896 0 0 0 5.53125,5.53125 H 30.425781 l 6.28125,-1.66797 L 90.628906,11.246094 94.386719,1.0292969 Z"
       style="opacity:0.56999966;fill:#525252;fill-opacity:1;stroke:none;stroke-width:11.63639927;stroke-miterlimit:4;stroke-dasharray:none;stroke-opacity:1"
       inkscape:connector-curvature="0" />
    <path
       sodipodi:nodetypes="ccccc"
       style="fill:#555555;stroke-width:1.99999988"
       id="path40"
       d="m 27.172553,123.63746 c 3.000001,1.50002 5.702,2.85196 8.839998,4.41997 C 39.116554,121.33943 94.609713,10.957686 97.529716,4.6297363 94.527713,3.1297174 91.825713,1.7777048 88.687715,0.20973 85.585713,6.9277647 30.092552,117.31144 27.172553,123.63746 Z"
       inkscape:connector-curvature="0" />
  </g>
</svg>
